src/main/resources/icons/DockerIcons/icons/PullImage_dark.svg

<svg xmlns="http://www.w3.org/2000/svg" width="16" height="16" viewBox="0 0 16 16">
  <g fill="none" fill-rule="evenodd">
    <path fill="#3592C4" d="M7.20416445,10.2041644 L10,13 L3,13 L3,6 L5.78995089,8.78995089 L8.33726109,6.24264069 L9.75147465,7.65685425 L7.20416445,10.2041644 Z"/>
    <path fill="#AFB1B3" d="M10,2 L14,2 L14,6 L10,6 L10,2 Z M11,3 L11,5 L13,5 L13,3 L11,3 Z"/>
  </g>
</svg>

<svg xmlns="http://www.w3.org/2000/svg" width="16" height="16" viewBox="0 0 16 16"><rect id="frame" width="16" height="16" fill="none"/><g fill="none" fill-rule="evenodd"><path fill="#3592C4" d="M7.204 10.204L10 13H3V6l2.79 2.79 2.547-2.547 1.414 1.414-2.547 2.547z"/><path fill="#AFB1B3" d="M10 2h4v4h-4V2zm1 1v2h2V3h-2z"/></g></svg>
